X:1
T:O come, let us with one accord
T:Uriah Davenport
T:Text: Anonymous (printed in full in The Psalm-Singer’s Companion).
T:This edition by Edmund Gooch released into the public domain, February 2011.
T:O come, let us with one accord
T:A Morning Hymn
C:Uriah Davenport
Z:Text: Anonymous (printed in full in
Z:The Psalm-Singer’s Companion).
%%score [ 1 2 3 4 ]
L:1/8
M:3/4
K:G
V:1 treble nm="Treble" snm="Tr."
V:2 treble nm="Alto" snm="A."
V:3 treble-8 transpose=-12 nm="Tenor" snm="T."
V:4 bass nm="Bass" snm="B."
V:1
 z4 G2 | G4 A2 | B4 G2 | G4 F2 | G4 z2 | G2 F2 G2 | A4 G2 | B4 A2 | A4 z2 | F2 G2 B2 | A4 G2 | %11
w: For|by his|word the|heav’ns were|made,|The earth’s foun-|da- tion|al- so|laid:|All things were|done at|
w: O|come, let|us with|one ac-|cord|Lift up our|voice and|praise the|Lord;|Let us this|morn- ing|
w: Let|u- ni-|ver- sal|na- ture|raise|A cheer- ful|voice to|give him|praise:|Let all the|world his|
 A4 G2 | F4 z2 | A2 B2 A2 | G4 B2 | G2 F4 | G6 || z4 B>A | G2 G2 c>B | A2 A2 d>c | (B3 c A2) | %21
w: his com-|mand,|Which through all|a- ges|firm- ly|stand.|||||
w: bless his|name,|And laud and|mag- ni-|fy the|same.|Hal- le-|lu- jah, hal- le-|lu- jah, hal- le-|lu- * *|
w: glo- ry|sing|Who is their|Sa- viour,|God, and|King.|||||
 A4 B>A | G2 G2 A>G | F2 F2 z2 | z4 d>c | (B>A G>F G>A | B2 A4) | G4 z2 |[M:4/4] G4 F4 | G8 |] %30
w: |||||||||
w: jah, hal- le-|lu- jah, hal- le-|lu- jah,|hal- le-|lu- * * * * *||jah,|Praise the|Lord.|
w: |||||||||
V:2
 z4 D2 | (D2 E2) F2 | G4 D2 | E4 D2 | D4 z2 | D2 D2 D2 | F4 D2 | (G2 F2) E2 | F4 z2 | D2 D2 E2 | %10
w: For|by _ his|word the|heav’ns were|made,|The earth’s foun-|da- tion|al- * so|laid:|All things were|
w: O|come, _ let|us with|one ac-|cord|Lift up our|voice and|praise _ the|Lord;|Let us this|
w: Let|u- * ni-|ver- sal|na- ture|raise|A cheer- ful|voice to|give _ him|praise:|Let all the|
 (D2 F2) D2 | E4 D2 | D4 z2 | D2 D2 D2 | (E2 F2) (GF) | E2 D4 | D6 || z4 D>D | E2 E2 E>E | %19
w: done _ at|his com-|mand,|Which through all|a- * ges _|firm- ly|stand.|||
w: morn- * ing|bless his|name,|And laud and|mag- * ni- *|fy the|same.|Hal- le-|lu- jah, hal- le-|
w: world _ his|glo- ry|sing|Who is their|Sa- * viour, _|God, and|King.|||
 F2 F2 F>F | (G>A G>F E2) | F4 F>E | D2 D2 E>E | D2 D2 D>C | (B,>A, B,>C D>E | F6- | F6) | D4 z2 | %28
w: |||||||||
w: lu- jah, hal- le-|lu- * * * *|jah, hal- le-|lu- jah, hal- le-|lu- jah, hal- le-|lu- * * * * *|||jah,|
w: |||||||||
[M:4/4] E4 D4 | D8 |] %30
w: ||
w: Praise the|Lord.|
w: ||
V:3
 z4 G2 | B4 d2 | d4 B2 | (c2 B2) A2 | G4 z2 | B2 A2 B2 | (d2 c2) B2 | (e2 d2) ^c2 | d4 z2 | %9
w: For|by his|word the|heav’ns _ were|made,|The earth’s foun-|da- * tion|al- * so|laid:|
w: O|come, let|us with|one _ ac-|cord|Lift up our|voice _ and|praise _ the|Lord;|
w: Let|u- ni-|ver- sal|na- * ture|raise|A cheer- ful|voice _ to|give _ him|praise:|
 A2 B2 G2 | (D2 d2) B2 | c4 B2 | A4 z2 | F2 G2 A2 | B4 d2 | (cB) A4 | G6 || z4 G>A | B2 B2 A>B | %19
w: All things were|done _ at|his com-|mand,|Which through all|a- ges|firm- * ly|stand.|||
w: Let us this|morn- * ing|bless his|name,|And laud and|mag- ni-|fy _ the|same.|Hal- le-|lu- jah, hal- le-|
w: Let all the|world _ his|glo- ry|sing|Who is their|Sa- viour,|God, _ and|King.|||
 c2 c2 B>c | (d3 e ^c2) | d4 d>c | B2 B2 c>B | A2 A2 B>A | (G>F G>A B>c | d6- | d6) | B4 z2 | %28
w: |||||||||
w: lu- jah, hal- le-|lu- * *|jah, hal- le-|lu- jah, hal- le-|lu- jah, hal- le-|lu- * * * * *|||jah,|
w: |||||||||
[M:4/4] (c3 B) A4 | G8 |] %30
w: ||
w: Praise _ the|Lord.|
w: ||
V:4
 z4 G,2 | (G,>F, E,2) D,2 | G,4 G,2 | C,4 D,2 | G,,4 z2 | G,,2 D,2 G,2 | D,4 G,2 | %7
w: For|by _ _ his|word the|heav’ns were|made,|The earth’s foun-|da- tion|
w: O|come, _ _ let|us with|one ac-|cord|Lift up our|voice and|
w: Let|u- * * ni-|ver- sal|na- ture|raise|A cheer- ful|voice to|
"^Emendations: Original clefs treble, alto, tenor and bass. The first stanza of the text and the concluding hallelujah chorusare underlaid in the source: stanzas 2-4 of the text are printed after the music for the first 17 bars, and have here beenunderlaid editorially." (E,2 F,G,) A,2 | %8
w: al- * * so|
w: praise _ _ the|
w: give _ _ him|
 D,4 z2 | D,2 G,2 E,2 | (F,2 D,2) G,2 | C,4 G,,2 | D,4 z2 | D,2 G,2 F,2 | (E,2 D,C,) B,,2 | %15
w: laid:|All things were|done _ at|his com-|mand,|Which through all|a- * * ges|
w: Lord;|Let us this|morn- * ing|bless his|name,|And laud and|mag- * * ni-|
w: praise:|Let all the|world _ his|glo- ry|sing|Who is their|Sa- * * viour,|
 C,2 D,4 | G,,6 || z4 G,>F, | E,2 E,2 A,>G, | F,2 F,2 B,>A, | (G,3 E, A,2) | D,4 D,>D, | %22
w: firm- ly|stand.||||||
w: fy the|same.|Hal- le-|lu- jah, hal- le-|lu- jah, hal- le-|lu- * *|jah, hal- le-|
w: God, and|King.||||||
 G,2 G,2 C,>C, | D,2 D,2 z2 | z4 B,>A, | (G,>F, G,>A, B,>C | D4 D,2) | G,4 z2 |[M:4/4] C,4 D,4 | %29
w: |||||||
w: lu- jah, hal- le-|lu- jah,|hal- le-|lu- * * * * *||jah,|Praise the|
w: |||||||
 G,,8 |] %30
w: |
w: Lord.|
w: |

